lib/functional/arrows/caret-up-down-sort.svg

<svg xmlns="http://www.w3.org/2000/svg" fill="none" stroke="currentColor" aria-hidden="true" viewBox="0 0 32 32"><g id="Icon-CaretUpDownSort"><g clip-path="url(#clip0_4_2929)"><g id="size=md (32px)"><path id="Vector" fill="#101828" d="M26.25 19.843C26.25 20.1899 26.1232 20.4902 25.8696 20.7437L16.9009 29.7106C16.6473 29.9642 16.347 30.0909 16 30.0909C15.653 30.0909 15.3527 29.9642 15.0991 29.7106L6.13037 20.7437C5.87679 20.4902 5.75 20.1899 5.75 19.843C5.75 19.4961 5.87679 19.1958 6.13037 18.9423C6.38395 18.6888 6.68424 18.562 7.03125 18.562H24.9688C25.3158 18.562 25.616 18.6888 25.8696 18.9423C26.1232 19.1958 26.25 19.4961 26.25 19.843ZM26.25 12.1571C26.25 12.504 26.1232 12.8042 25.8696 13.0578C25.616 13.3113 25.3158 13.438 24.9688 13.438H7.03125C6.68424 13.438 6.38395 13.3113 6.13037 13.0578C5.87679 12.8042 5.75 12.504 5.75 12.1571C5.75 11.8101 5.87679 11.5099 6.13037 11.2564L15.0991 2.28941C15.3527 2.03588 15.653 1.90912 16 1.90912C16.347 1.90912 16.6473 2.03588 16.9009 2.28941L25.8696 11.2564C26.1232 11.5099 26.25 11.8101 26.25 12.1571Z"/></g></g></g><defs><clipPath id="clip0_4_2929"><rect width="32" height="32" fill="white" rx="5"/></clipPath></defs></svg>

<svg xmlns="http://www.w3.org/2000/svg" fill="none" stroke="currentColor" aria-hidden="true" viewBox="0 0 32 32"><path fill="#101828" d="M26.25 19.843c0 .347-.127.647-.38.9l-8.97 8.968c-.253.253-.553.38-.9.38s-.647-.127-.9-.38l-8.97-8.967a1.231 1.231 0 0 1-.38-.9c0-.348.127-.648.38-.902.254-.253.554-.38.901-.38H24.97c.347 0 .647.127.9.38.254.254.381.554.381.901Zm0-7.686c0 .347-.127.647-.38.9a1.231 1.231 0 0 1-.901.381H7.03a1.23 1.23 0 0 1-.9-.38 1.231 1.231 0 0 1-.381-.9c0-.348.127-.648.38-.902L15.1 2.29c.253-.253.553-.38.9-.38s.647.127.9.38l8.97 8.967c.253.254.38.554.38.901Z"/></svg>
